!!!OTL: ES WOLLT  EIN MAEGDLEIN WASSER HOLN
!!!ARE: Europa, Mitteleuropa, Deutschland, Vogelsberg, Rabenau
!!!SCT: E0117A
!!!YEM: Copyright 1995, estate of Helmut Schaffrath.
**kern
*ICvox
*Ivox
*M2/4
*k[f#c#g#]
*A:
{8e
=1
8.a
16e
8c#
8e
=2
8.a
16a
8a}
{8cc#
=3
8.b
16cc#
8b
8a
=4
8g#
8f#
8e}
{8ee
=5
8.dd
16ff#
8b
8dd
=6
8.cc#
16ee
8a}
{8cc#
=7
8.b
16b
8dd
8b
=8
8b
8a
8a}
{8ee
=9
8.dd
16ff#
8b
8dd
=10
8.cc#
16ee
8a}
{8cc#
=11
8.b
16b
8dd
8b
=12
8b
8a
8a}
==
!!!AGN: erzaehlendes Volks - Lied, Schalk -, Schelmen - Lied, Liebe, Ballade ?
!!!ONB: ESAC (Essen Associative Code) Database: ERK1
!!!AMT: simple duple
!!!AIN: vox
!!!EED: Helmut Schaffrath
!!!EEV: 1.0
*-
